flaticon/transport/car-repair-3.svg

<svg xmlns="http://www.w3.org/2000/svg" width="32" height="32" viewBox="0 0 24 24">
    <path d="M 21 14.695312 L 21 2 C 21 1.320312 20.480469 0.800781 19.800781 0.800781 L 14.601562 0.800781 C 14.601562 0.359375 14.238281 0 13.800781 0 L 8.199219 0 C 7.761719 0 7.398438 0.359375 7.398438 0.800781 L 2.199219 0.800781 C 1.519531 0.800781 1 1.320312 1 2 L 1 22.800781 C 1 23.480469 1.519531 24 2.199219 24 L 17.800781 24 C 20.679688 24 23 21.679688 23 18.800781 C 23 17.128906 22.21875 15.644531 21 14.695312 Z M 19.800781 1.601562 C 20.039062 1.601562 20.199219 1.761719 20.199219 2 L 20.199219 14.183594 C 19.945312 14.050781 19.675781 13.9375 19.398438 13.847656 L 19.398438 3.199219 C 19.398438 2.761719 19.039062 2.398438 18.601562 2.398438 L 14.601562 2.398438 L 14.601562 1.601562 Z M 12.601562 18.960938 C 12.601562 18.96875 12.601562 18.980469 12.605469 18.988281 C 12.636719 19.949219 12.929688 20.839844 13.414062 21.601562 L 3.398438 21.601562 L 3.398438 3.199219 L 7.398438 3.199219 C 7.398438 3.640625 7.761719 4 8.199219 4 L 13.800781 4 C 14.238281 4 14.601562 3.640625 14.601562 3.199219 L 18.601562 3.199219 L 18.601562 13.660156 C 18.542969 13.652344 18.488281 13.644531 18.429688 13.636719 C 18.425781 13.636719 18.421875 13.636719 18.417969 13.636719 C 18.375 13.632812 18.332031 13.625 18.285156 13.621094 C 18.277344 13.621094 18.265625 13.621094 18.253906 13.621094 C 18.214844 13.617188 18.179688 13.613281 18.140625 13.609375 C 18.125 13.609375 18.113281 13.609375 18.097656 13.609375 C 18.0625 13.605469 18.023438 13.605469 17.988281 13.605469 C 17.976562 13.601562 17.960938 13.601562 17.949219 13.601562 C 17.898438 13.601562 17.847656 13.601562 17.800781 13.601562 C 14.921875 13.601562 12.601562 15.921875 12.601562 18.800781 C 12.601562 18.855469 12.601562 18.910156 12.601562 18.960938 Z M 8.199219 0.800781 L 13.800781 0.800781 L 13.800781 3.199219 L 8.199219 3.199219 Z M 2.199219 23.199219 C 1.960938 23.199219 1.800781 23.039062 1.800781 22.800781 L 1.800781 2 C 1.800781 1.761719 1.960938 1.601562 2.199219 1.601562 L 7.398438 1.601562 L 7.398438 2.398438 L 3.398438 2.398438 C 2.960938 2.398438 2.601562 2.761719 2.601562 3.199219 L 2.601562 21.601562 C 2.601562 22.039062 2.960938 22.398438 3.398438 22.398438 L 14.042969 22.398438 C 14.332031 22.703125 14.664062 22.972656 15.019531 23.199219 Z M 17.800781 23.199219 C 16.527344 23.199219 15.386719 22.667969 14.585938 21.8125 C 14.570312 21.78125 14.550781 21.75 14.519531 21.71875 C 13.84375 20.96875 13.453125 20.011719 13.40625 19.003906 C 13.40625 19 13.40625 19 13.40625 18.996094 C 13.402344 18.929688 13.398438 18.867188 13.398438 18.800781 C 13.398438 16.359375 15.359375 14.398438 17.800781 14.398438 C 17.851562 14.398438 17.902344 14.402344 17.953125 14.402344 C 17.957031 14.402344 17.964844 14.402344 17.96875 14.402344 C 17.980469 14.402344 17.992188 14.40625 18.003906 14.40625 C 18.035156 14.40625 18.070312 14.410156 18.105469 14.410156 C 18.136719 14.414062 18.167969 14.414062 18.199219 14.417969 C 18.203125 14.417969 18.207031 14.417969 18.210938 14.417969 C 18.433594 14.441406 18.65625 14.484375 18.878906 14.558594 C 18.925781 14.574219 18.972656 14.578125 19.019531 14.574219 C 19.441406 14.695312 19.847656 14.878906 20.234375 15.128906 C 21.421875 15.917969 22.199219 17.261719 22.199219 18.800781 C 22.199219 21.238281 20.238281 23.199219 17.800781 23.199219 Z M 17.800781 23.199219"/>
    <path d="M20.441406 16.519531C20.238281 16.359375 20 16.398438 19.878906 16.601562L17.640625 19.800781 16.078125 18.519531C15.921875 18.359375 15.640625 18.398438 15.519531 18.558594 15.359375 18.71875 15.398438 19 15.558594 19.121094L17.480469 20.679688C17.519531 20.71875 17.640625 20.761719 17.71875 20.761719 17.71875 20.761719 17.761719 20.761719 17.761719 20.800781 17.878906 20.800781 17.960938 20.71875 18.039062 20.640625L20.519531 17.078125C20.679688 16.878906 20.640625 16.640625 20.441406 16.519531zM14.199219 13.199219C14.941406 13.199219 15.570312 12.6875 15.75 12L16.359375 12C16.960938 12 17.398438 11.558594 17.441406 10.960938L17.441406 9.398438C17.441406 8.800781 16.960938 8.359375 16.398438 8.359375L15.546875 8.359375 14 6.199219C13.761719 5.839844 13.359375 5.640625 12.921875 5.640625L11.1875 5.640625C11.132812 5.613281 11.070312 5.601562 11 5.601562 10.929688 5.601562 10.867188 5.613281 10.8125 5.640625L9.078125 5.640625C8.640625 5.640625 8.238281 5.839844 8 6.199219L6.453125 8.359375 5.640625 8.359375C5.039062 8.359375 4.601562 8.839844 4.601562 9.398438L4.601562 10.960938C4.601562 11.558594 5.039062 12 5.640625 12L6.25 12C6.429688 12.6875 7.058594 13.199219 7.800781 13.199219 8.542969 13.199219 9.171875 12.6875 9.347656 12L12.652344 12C12.828125 12.6875 13.457031 13.199219 14.199219 13.199219zM14.199219 12.398438C13.761719 12.398438 13.398438 12.039062 13.398438 11.601562 13.398438 11.160156 13.761719 10.800781 14.199219 10.800781 14.640625 10.800781 15 11.160156 15 11.601562 15 12.039062 14.640625 12.398438 14.199219 12.398438zM13.320312 6.601562L14.570312 8.359375 11.398438 8.359375 11.398438 6.398438 12.878906 6.398438C13.078125 6.398438 13.238281 6.480469 13.320312 6.601562zM8.601562 6.601562C8.71875 6.480469 8.878906 6.398438 9.039062 6.398438L10.601562 6.398438 10.601562 8.359375 7.386719 8.359375zM7.800781 12.398438C7.359375 12.398438 7 12.039062 7 11.601562 7 11.160156 7.359375 10.800781 7.800781 10.800781 8.238281 10.800781 8.601562 11.160156 8.601562 11.601562 8.601562 12.039062 8.238281 12.398438 7.800781 12.398438zM7.839844 10C7.832031 10 7.824219 10 7.816406 10 7.8125 10 7.804688 10 7.800781 10 7.058594 10 6.429688 10.511719 6.25 11.199219L5.640625 11.199219C5.519531 11.199219 5.398438 11.078125 5.398438 10.960938L5.398438 9.398438C5.398438 9.28125 5.519531 9.160156 5.640625 9.160156L6.421875 9.160156C6.472656 9.183594 6.53125 9.199219 6.601562 9.199219L15.398438 9.199219C15.46875 9.199219 15.527344 9.183594 15.578125 9.160156L16.398438 9.160156C16.519531 9.160156 16.640625 9.28125 16.640625 9.398438L16.640625 10.960938C16.640625 11.078125 16.519531 11.199219 16.398438 11.199219L15.761719 11.199219C15.558594 10.519531 15.039062 10 14.28125 10 14.265625 10 14.25 10 14.238281 10 14.222656 10 14.210938 10 14.199219 10 13.457031 10 12.828125 10.511719 12.652344 11.199219L9.398438 11.199219C9.199219 10.519531 8.601562 10 7.839844 10zM11 15.199219L5 15.199219C4.761719 15.199219 4.601562 15.359375 4.601562 15.601562 4.601562 15.839844 4.761719 16 5 16L11 16C11.238281 16 11.398438 15.839844 11.398438 15.601562 11.398438 15.359375 11.238281 15.199219 11 15.199219zM11 17.199219L5 17.199219C4.761719 17.199219 4.601562 17.359375 4.601562 17.601562 4.601562 17.839844 4.761719 18 5 18L11 18C11.238281 18 11.398438 17.839844 11.398438 17.601562 11.398438 17.359375 11.238281 17.199219 11 17.199219zM11 19.199219L5 19.199219C4.761719 19.199219 4.601562 19.359375 4.601562 19.601562 4.601562 19.839844 4.761719 20 5 20L11 20C11.238281 20 11.398438 19.839844 11.398438 19.601562 11.398438 19.359375 11.238281 19.199219 11 19.199219zM11 19.199219"/>
</svg>

<svg xmlns="http://www.w3.org/2000/svg" width="32" height="32" viewBox="0 0 24 24">
    <path d="M21 14.695V2c0-.68-.52-1.2-1.2-1.2h-5.198c0-.44-.364-.8-.801-.8H8.199c-.437 0-.8.36-.8.8h-5.2C1.52.8 1 1.32 1 2v20.8c0 .68.52 1.2 1.2 1.2h15.6a5.19 5.19 0 0 0 5.2-5.2 5.186 5.186 0 0 0-2-4.105zM19.8 1.602c.24 0 .4.16.4.398v12.184a5.172 5.172 0 0 0-.802-.336V3.199c0-.437-.359-.8-.796-.8h-4v-.797zM12.603 18.96a5.163 5.163 0 0 0 .813 2.64H3.397V3.2h4c0 .442.364.801.801.801h5.602c.437 0 .8-.36.8-.8h4v10.46l-.171-.023h-.012c-.043-.004-.086-.012-.133-.016h-.031l-.113-.012h-.043c-.035-.004-.075-.004-.11-.004-.011-.003-.027-.003-.039-.003h-.148a5.19 5.19 0 0 0-5.2 5.199v.16zM8.199.8h5.602v2.398H8.199zm-6 22.398c-.238 0-.398-.16-.398-.398V2c0-.238.16-.398.398-.398h5.2v.796h-4a.804.804 0 0 0-.797.801v18.403a.8.8 0 0 0 .796.796h10.645c.289.305.621.575.977.801zm15.602 0a4.381 4.381 0 0 1-3.215-1.387.346.346 0 0 0-.066-.093 4.35 4.35 0 0 1-1.114-2.715v-.008c-.004-.066-.008-.129-.008-.195a4.39 4.39 0 0 1 4.403-4.403c.05 0 .101.004.152.004h.016c.011 0 .023.004.035.004.031 0 .066.004.101.004.032.004.063.004.094.008h.012c.223.023.445.066.668.14.047.016.094.02.14.016.422.121.829.305 1.215.555A4.388 4.388 0 0 1 22.2 18.8a4.388 4.388 0 0 1-4.398 4.398zm0 0"/>
    <path d="M20.441 16.52c-.203-.16-.441-.122-.562.082L17.64 19.8l-1.563-1.281c-.156-.16-.437-.122-.558.039-.16.16-.122.441.039.562l1.921 1.559c.04.039.16.082.239.082 0 0 .043 0 .043.039.117 0 .199-.082.277-.16l2.48-3.563c.16-.2.122-.437-.078-.558zm0 0M14.2 13.2c.741 0 1.37-.512 1.55-1.2h.61c.6 0 1.038-.441 1.081-1.04V9.399c0-.597-.48-1.039-1.043-1.039h-.851L14 6.2a1.273 1.273 0 0 0-1.078-.558h-1.735A.413.413 0 0 0 11 5.6a.413.413 0 0 0-.188.04H9.079c-.437 0-.84.199-1.078.558L6.453 8.36h-.812c-.602 0-1.04.48-1.04 1.04v1.562c0 .598.438 1.039 1.04 1.039h.609c.18.688.809 1.2 1.55 1.2.743 0 1.372-.512 1.548-1.2h3.304c.176.688.805 1.2 1.547 1.2zm0-.802c-.438 0-.802-.359-.802-.796 0-.442.364-.801.801-.801.442 0 .801.36.801.8 0 .438-.36.797-.8.797zm-.88-5.796l1.25 1.757h-3.172V6.4h1.48c.2 0 .36.081.442.203zm-4.718 0a.63.63 0 0 1 .437-.204h1.563V8.36H7.387zM7.8 12.398c-.442 0-.801-.359-.801-.796 0-.442.36-.801.8-.801.438 0 .802.36.802.8a.804.804 0 0 1-.801.797zM7.84 10H7.8c-.742 0-1.371.512-1.551 1.2h-.61c-.12 0-.242-.122-.242-.24V9.399c0-.117.122-.238.243-.238h.78c.052.024.11.04.18.04h8.797a.42.42 0 0 0 .18-.04h.82c.122 0 .243.121.243.238v1.563c0 .117-.121.238-.243.238h-.636c-.203-.68-.723-1.199-1.48-1.199H14.198c-.742 0-1.37.512-1.547 1.2H9.398C9.2 10.52 8.602 10 7.84 10zm0 0M11 15.2H5c-.238 0-.398.16-.398.402 0 .238.16.398.398.398h6c.238 0 .398-.16.398-.398 0-.243-.16-.403-.398-.403zm0 0M11 17.2H5c-.238 0-.398.16-.398.402 0 .238.16.398.398.398h6c.238 0 .398-.16.398-.398 0-.243-.16-.403-.398-.403zm0 0M11 19.2H5c-.238 0-.398.16-.398.402 0 .238.16.398.398.398h6c.238 0 .398-.16.398-.398 0-.243-.16-.403-.398-.403zm0 0"/>
</svg>
